packages/core/src/svgs/egg.svg

<svg width="24" height="24" viewBox="0 0 24 24" fill="none" xmlns="http://www.w3.org/2000/svg">
<g clip-path="url(#clip0_31_9770)">
<path d="M0 0H24V24H0V0Z" fill="#F0F3FA"/>
<path d="M17.1429 13.5954C17.1429 16.5011 14.8402 18.8574 12 18.8574C9.15989 18.8574 6.85718 16.5015 6.85718 13.5954C6.85718 10.6888 8.54918 5.14307 12 5.14307C15.4505 5.14307 17.1429 10.6888 17.1429 13.5954Z" fill="#0075FF"/>
<path d="M16.7559 15.6019C17.0126 14.9641 17.144 14.2829 17.1429 13.5954C17.1429 10.6888 15.4505 5.14307 12.0001 5.14307C9.76509 5.14307 8.26766 7.46978 7.49023 9.89892L16.7559 15.6019Z" fill="#87FFFF"/>
<path d="M10.5502 5.49707L9.39524 11.0711L7.49023 9.8985C8.08595 8.0385 9.10295 6.2385 10.5502 5.49707Z" fill="#AAFFFF"/>
<path d="M7.49018 9.89893C7.06718 11.2198 6.85718 12.5715 6.85718 13.5954C6.85718 14.9334 7.34575 16.1548 8.14932 17.0835L9.39518 11.0715L7.49018 9.89893Z" fill="#91DCF1"/>
<path d="M17.1428 13.5953C17.1428 14.3059 17.0053 14.9835 16.7558 15.6019L14.1428 13.9931V5.95605C16.1528 7.60477 17.1428 11.3723 17.1428 13.5953Z" fill="#43C6FD"/>
<path d="M17.1429 13.5951C17.1429 14.3057 17.0054 14.9832 16.7559 15.6017L14.1279 13.9842L17.0396 12.2168C17.1086 12.7139 17.1429 13.1811 17.1429 13.5951Z" fill="#44B5FD"/>
<path opacity="0.7" d="M8.15186 17.0713L14.133 13.9873L9.39514 11.0713L8.15186 17.0713Z" fill="#3E91FF"/>
<path d="M14.1428 18.38V13.9927L16.7558 15.6011C16.2595 16.8311 15.321 17.8267 14.1428 18.38Z" fill="#0096FF"/>
</g>
<defs>
<clipPath id="clip0_31_9770">
<rect width="24" height="24" fill="white"/>
</clipPath>
</defs>
</svg>

<svg xmlns="http://www.w3.org/2000/svg" width="24" height="24" fill="none" viewBox="0 0 24 24"><g clip-path="url(#a)"><path fill="#F0F3FA" d="M0 0h24v24H0z"/><path fill="#0075FF" d="M17.143 13.595c0 2.906-2.303 5.262-5.143 5.262s-5.143-2.355-5.143-5.262S8.55 5.143 12 5.143s5.143 5.546 5.143 8.452"/><path fill="#87FFFF" d="M16.756 15.602a5.4 5.4 0 0 0 .387-2.007c0-2.906-1.693-8.452-5.143-8.452-2.235 0-3.732 2.327-4.51 4.756z"/><path fill="#AFF" d="m10.55 5.497-1.155 5.574L7.49 9.9c.596-1.86 1.613-3.66 3.06-4.402"/><path fill="#91DCF1" d="M7.49 9.899c-.423 1.32-.633 2.673-.633 3.696 0 1.338.489 2.56 1.292 3.489l1.246-6.012z"/><path fill="#43C6FD" d="M17.143 13.595c0 .71-.138 1.388-.387 2.007l-2.613-1.609V5.956c2.01 1.649 3 5.416 3 7.64"/><path fill="#44B5FD" d="M17.143 13.595c0 .71-.138 1.388-.387 2.007l-2.628-1.618 2.912-1.767c.069.497.103.964.103 1.378"/><path fill="#3E91FF" d="m8.152 17.071 5.981-3.084-4.738-2.916z" opacity=".7"/><path fill="#0096FF" d="M14.143 18.38v-4.387l2.613 1.608a5.23 5.23 0 0 1-2.613 2.779"/></g><defs><clipPath id="a"><path fill="#fff" d="M0 0h24v24H0z"/></clipPath></defs></svg>
